X:6673
T:The Crows are Coming Home
O:england
B:Joyce, P. W.; "Old Irish Folk Music and Songs"
H:From the whistling of Phil Gleeson of Coolfree: about 1851
R:tune
L:1/8
M:3/4
K:G
dB|A2 BAAG|A2 B2 d2|e2 d2 B2 |AA G2 dB|
A2 BAAG|A2 B2 d2|e2 d2 B2 |AB A2||
ef|g2 a2 (3age|g2 a2 ag|e2 d2 B2|AA G2 dB|
A2 BAAG|A2 B2 d2|e2 d2 B2|AB A2||
